assets/images/forkandknife.svg

<svg width="24" height="24" viewBox="0 0 17 21" fill="none" xmlns="http://www.w3.org/2000/svg">
<g id="Group">
<g id="Group_2">
<path id="Vector" d="M4.1875 9.3999V19.1001" stroke="#242527" stroke-width="1.5" stroke-miterlimit="10" stroke-linecap="round" stroke-linejoin="round"/>
<path id="Vector_2" d="M4.1875 6.3999V0.899902" stroke="#242527" stroke-width="1.5" stroke-miterlimit="10" stroke-linecap="round" stroke-linejoin="round"/>
<g id="Group_3">
<path id="Vector_3" d="M7.54175 5.5V1" stroke="#242527" stroke-width="1.5" stroke-miterlimit="10" stroke-linecap="round" stroke-linejoin="round"/>
<g id="Group_4">
<path id="Vector_4" d="M7.54167 5.3999C7.54167 7.5999 6.00833 9.3999 4.1875 9.3999" stroke="#242527" stroke-width="1.5" stroke-miterlimit="10" stroke-linecap="round" stroke-linejoin="round"/>
<path id="Vector_5" d="M0.833374 5.3999C0.833374 7.5999 2.36671 9.3999 4.18754 9.3999" stroke="#242527" stroke-width="1.5" stroke-miterlimit="10" stroke-linecap="round" stroke-linejoin="round"/>
</g>
<path id="Vector_6" d="M0.833374 5.5V1" stroke="#242527" stroke-width="1.5" stroke-miterlimit="10" stroke-linecap="round" stroke-linejoin="round"/>
</g>
</g>
<path id="Vector_7" d="M14.25 13C12.6208 13 11.375 11.7 11.375 10V4C11.375 2.3 12.6208 1 14.25 1" stroke="#EE5446" stroke-width="1.5" stroke-miterlimit="10" stroke-linecap="round" stroke-linejoin="round"/>
<path id="Vector_8" d="M14.25 1H15.2083C15.7833 1 16.1667 1.4 16.1667 2V19.5" stroke="#EE5446" stroke-width="1.5" stroke-miterlimit="10" stroke-linecap="round" stroke-linejoin="round"/>
<path id="Vector_9" d="M14.25 13H16.1667" stroke="#EE5446" stroke-width="1.5" stroke-miterlimit="10" stroke-linecap="round" stroke-linejoin="round"/>
</g>
</svg>

<svg xmlns="http://www.w3.org/2000/svg" width="24" height="24" fill="none" viewBox="0 0 17 21"><g stroke-linecap="round" stroke-linejoin="round" stroke-miterlimit="10" stroke-width="1.5"><g stroke="#242527"><path d="M4.188 9.4v9.7M4.188 6.4V.9M7.542 5.5V1M7.542 5.4c0 2.2-1.534 4-3.354 4M.833 5.4c0 2.2 1.534 4 3.355 4M.833 5.5V1"/></g><path stroke="#EE5446" d="M14.25 13c-1.63 0-2.875-1.3-2.875-3V4c0-1.7 1.246-3 2.875-3M14.25 1h.958c.575 0 .959.4.959 1v17.5M14.25 13h1.917"/></g></svg>
